X:1
T:O notte madre
T:O notte madre
T:Jhan Gero
T:Source : Trium vocum cantiones---Nürnberg---J.Petreius---1541. Editor : André Vierendeels (24/09/16).
T:Notes  : Original clefs : C2, C3, F4 Editorial accidentals above the staff Original note values have been halved Square bracket indicates ligature  
T:b
T:©
T:©
T:©
T:©
T:©
C:Jhan Gero
Z:©
%%score [ 1 2 3 ]
L:1/8
Q:1/4=118
M:2/2
K:C
V:1 treble nm="Alto" snm="A"
V:2 treble-8 nm="Tenor" snm="T"
V:3 bass nm="Bass" snm="B"
V:1
 E8 | E2 E2 F4 | E2 E2 A2 A2 | GFFE/D/ ^C2 A2 | B4 A2 F2 | G4 F2 F2 | G2 A2 F2 G2- | GF F4 E2 | %8
w: O|not- te ma-|dre, O not- te|ma- * * * * dre, de|tut- ti pen-|sie- ri, de|tut- ti pen- sie-||
 F2 C2 F4- | F2 E2 E4- | E2 D2 D4- | D2 C2 C4- | C2 B,2 B,4- | B,2 A,2 A,4- |"^#" A,2 G,F, G,4 | %15
w: ri, per- che|_ non dir|_ al- la|_ mia dol-|* ce di-|||
 A,4 E4 | F3 F E2 F2- | FE E4 D2 | E4 C4 | D2 F2 F2 E2 | F4 G4 | A3 G F2 E2- | ED D4 C2 | %23
w: va, on-|de mio mal de-|* * ri- *|va, sa-|pen- do miei do-|lor, e|a- tro- ce pe-||
 D2 D2 D2 D2 | F4 E4 | G6 F2 | E2 F2 D4 | C4 z2 A,2 | C3 D E2 E2 | F8 | E2 A2 A2 G2 | A2 c2 B2 A2 | %32
w: ne, co- me sol|pian- go|mia cru-|del par- ti-|ta, et|ma- le- dis- co|l'ho-|ra ch'ab- ban- do-|nai si char' e|
 G2 F2 E4 | E2 B2 c3 B/A/ | G2 A2 B2 c2- | cB A4 G2 | A4 z2 A2 | A2 A2 E2 F2 | G2 FE D2 F2 | %39
w: dol- ce be-|ne, e dol- * *|* ce be- *||ne, qual|con un sguar- do|sol _ _ te- ne|
 F2 G2 A4- | A2 G2 F4 | E2 E2 G2 G2 | F4 E4 | D4 F4 | G2 A4 G2 | F2 E2 D4 | C2 A,2 B,2 C2 | %47
w: am' in vi-||ta, et dir gli|an- chor|tu poi|che me ne|pen- * *|to, del mio par-|
 D2 E2 A,2 E2 | E2 D2 E2 F2- | FE D4 C2 | D2 A,2 B,2 C2 | D2 E2 A,2 E2 | E2 D2 E2 F2- | FE D4 C2 | %54
w: tir on- de sto|mi in tor- men-||to, del mio par-|tir on- de sto|m'in tor- men- *||
 D8 |] %55
w: to.|
V:2
 c8 | B2 c2 d4 | c2 c2 f2 f2 | d4 e2 f2- | f2 e2 f2 d2 | c6 BA | G2 F2 _B4 | A2 F2 G4 | F4 A4 | %9
w: O|not- te ma-|dre de tut- ti|pen- sie- *|* * ri, di|tut- * *|ti pen- sie-||ri, per-|
 c6 B2 | B6 A2 | A6 G2 | G6 F2 | F6 E2 | D8 | E4 A4- | A4 c3 c | B2 G2 A4 | G2 G2 A2 c2 | %19
w: che con|dir al-|la mia|dol- ce|di- *||va, on-|* de mio|mal de- ri-|va, sa- pen- do|
 c2 B2 c3 B | A4 G2 c2- | cB A3 G E2 | F2 G2 E4 | D4 z2 A2 | A2 A2 c4 |"^b" B2 G2 A2 B2- | %26
w: miei do- lor, e|a- tro ce|_ _ pe- * *||ne, co-|me sol pian-|go mia cru- del|
 BA A4 G2 | A2 A2 c3 d | e4 c4 | d8 | c4 z2 d2 | d2 c2 d2 f2 | e2 d2 c4- | c2 B2 cdec | d2 e3 dcB | %35
w: _ par- ti- *|ta, st ma- le|di- sco|l'ho-|ra, ch'ab-|ban- do- nai si|char' e dol-||ce be- * * *|
 A4 B4 | A8 | z4 z2 e2 | e2 e2 B2 c2 | d2 cB A2 A2 | A2 c4 B2 | c3 B/A/ G4 | z2 A2 c2 c2 | %43
w: |ne,|qual|con un sguar- do|(sol) te- * ne am'|in vi- *|* * * ta,|et dir gli|
 B4 A2 c2- | c2 c2 A2 B2- | BA A4 G2 | A4 E4 | z2 E2 F2 G2 | A2 B2 c2 A2 | F2 G2 E4 | D2 F2 E4 | %51
w: an- chor tu|_ _ poi me|_ _ pen- *|to, _|del mio par-|tir on- de _|sto mi in|tor- men- to,|
 z2 E2 F2 G2 | A2 B2 c2 A2 | F2 G2 E4 | D8 |] %55
w: del mio par-|tir on- de sto|m'in tor- men-|to.|
V:3
 A,8 | G,2 A,2 D,4 | A,4 F,4 |"^b" B,4 A,2 F,2 | G,4 F,4 | z2 C,2 F,4 | E,2 D,4 E,2 | F,2 D,2 C,4 | %8
w: O|not- te ma-|dre de|tut- ti pen-|sie- ri,|de tut-|ti pen- sie-|* * ri,|
 z4 D,4 | A,6 G,2 | G,6 F,2 | F,6 E,2 | E,6 D,2 | D,6 C,2 | B,,8 | A,,8 | D,4 A,3 A, | %17
w: per-|che non|dir al-|la mia|dol- ce|di- *||va,|on- de mio|
 G,2 E,2 F,4 | C,2 C,2 F,3 E, | D,2 D,2 C,2 C,2 | D,2 F,2 F,2 E,2 | F,3 E, D,2 C,2 | _B,,4 A,,4 | %23
w: mal de- ri-|va, sa- pen- di|miei do- loe, e|a- tro- ce pe-||* ne,|
 z4 D,4 | D,2 D,2 A,4 | E,2 E,2 D,4 | C,2 D,2 B,,4 | A,,8- | A,,8 | D,4 F,3 G, | %30
w: co-|me sol pian-|go mia cru-|del par- ti-|ta.|_|et ma- le-|
"^#""^b" A,2 A,2 B,4 | A,4 D,4 | z4 A,4 | A,2 G,2 A,2 C2 | B,2 A,2 G,2 A,2 | F,4 E,4 | A,,8 | %37
w: di- sco l'ho-|* ra;|ch'ab-|ban- do- nai si|char' e dol- ce|be- *|ne,|
 A,4 A,2 A,2 | E,2 F,2 G,2 F,E, | D,2 E,2 F,4- | F,2 E,2 D,4 | C,2 A,,2 E,2 E,2 | D,4 C,2 C,2 | %43
w: qual con un|sguar- do sol _ _|te- ne am'|_ in vi-|ta, et dir gli|an- chor tu|
 G,2 G,2 F,4 | E,2 F,4 E,2 | D,2 C,2 B,,4 | A,,4 z2 A,,2 | B,,2 C,2 D,2 E,2 | A,,2 D,2 C,2 D,2 | %49
w: poi che me|ne pen- *||to, del|mio par- tir on-|de sto mi in|
"^#" D,C, B,,2 A,,4 | D,4 z2 A,,2 | B,,2 C,2 D,2 E,2 | A,,2 D,2 C,2 D,2- | D,C, B,,2 A,,4 | D,8 |] %55
w: tor- * men- *|to del|mio par- * tir|on- de sto m'in|_ _ tor- men-|to|

